X:1
T:Het molenarinneken
T:Mattheus Pipelare
T:Het molenarinneken
C:Mattheus Pipelare
%%score [ 1 2 3 4 ]
L:1/8
Q:1/4=214
M:4/2
K:Bb
V:1 treble nm="Superius" snm="S"
V:2 treble-8 nm="Contratenor" snm="CT"
V:3 treble-8 nm="Tenor" snm="T"
V:4 bass nm="Bassus" snm="B"
V:1
 z16 | z16 | z16 | A8 B8- | B4 B4 A8 | G16 | c8 B8 | A4 G6 F2 E2 D2 | E4 D8 C4 | D8 z4 A4 | %10
w: |||Ick weedt|_ een mo-|le-|na- rin-|ne Van _ her- *|ten al- so|fijn. In|
 B4 A4 B4 G4 | F8 D8- | D4 C4 D8 | z16 | z16 | z4 A4 B6 A2 | B4 G4 F8 | D8 G8 | F6 E2 D4 C2 B,2 | %19
w: al- le de- ze|lan- *|* * den,|||in al- le|de- ze lan-|den En|mach gheen schoon- der _|
 C8 z4 B,4 | D6 E2 F4 G2 E2 | F6 E2 D8 | z8 z4 F4 | F6 G2 A4 B4- | B4 A2 G2 F4 G4- | G4 F4 G8 | %26
w: zijn: Rijk|God _ mocht zij mij|ma- * len,|rijk|God _ mocht zij|_ mij _ ma- *|* * len,|
 z16 | z16 | z16 | z16 | z8 G8 | F4 F4 G4 A4- | A2 B2 c2 A2 B8 | A8 G4 c4- | c2 B2 A8 G4 | %35
w: ||||Goed|co- ren soud ick|_ _ haer _ ha-|||
 A6 G2 F2 =E2 D4 | z4 C4 D6 =E2 | F4 G4 G4 F4 | G16 | z16 | z16 | z16 | z16 | z8 G8 | %44
w: * * * * len,|mocht zij _|_ mij ma- *|len,|||||goed|
 F4 F4 G4 A4- | A2 B2 c2 A2 B8 | A8 G4 c4- | c2 B2 A8 G4 | A6 G2 F2 =E2 D4 | z4 C4 D6 =E2 | %50
w: co- ren soud ick|_ _ haer _ ha-|||* * * * len,|Wou sij mijn|
 F4 G2 G2 G4 ^F4 | G16 |] %52
w: mo- le- na- rin- ne|sijn.|
V:2
 A8 B8- | B4 B4 A8 | G6 FE D4 G4- | G4 F4 G8 | z8 D8 | d6 c2 B2 A2 G4- | G4 F4 G4 E4 | %7
w: Ick weedt|_ een mo-|le- * * na- rin-|* ne- ken|Van|her- * * * *|* ten al- so|
 F4 G4 z4 G4 | c4 A6 G2 A4 | F4 D4 z4 d4 | d4 c4 d4 B4 | A8 z8 | z8 z4 A4 | B4 d6 c2 B4 | %14
w: fijn, _ Van|her- * ten al-|so fijn, Van|her- ten al- so|fijn.|In|al- * * le|
 A4 d4 d4 B4- | B4 c4 d6 c2 | B8 A8 | z16 | D8 G8 | F8 G8 | z16 | z4 B4 B6 c2 | d4 e4 d8- | %23
w: de- ze lan- *||* den,||gheen schoon-|der zijn:||Rijk God _|_ mocht zij|
 d8 c4 B4 | f6 e2 d4 c4 | d8 B8 | z8 c8 | B4 B4 c4 d4- | d2 e2 f2 d2 e8 | d4 f4 e4 f4- | %30
w: _ _ mij|ma- * * *|* len,|Goed|co- ren soud ick|_ _ haer _ ha-||
 f2 e2 d8 c4 | d4 A4 B4 c4 | d4 c4 d4 =e4 | f8 z4 f4 | f8 d6 =e2 | f4 d6 c2 B2 A2 | G4 F4 D4 d4- | %37
w: |len, goed co- ren|soud ick haer ha-|len, goed|co- ren _|soud ick _ _ _|_ haer ha- *|
 d4 c4 d8 | B16 | z8 c8 | B4 B4 c4 d4- | d2 e2 f2 d2 e8 | d4 f4 e4 f4- | f2 e2 d8 c4 | %44
w: |len,|goed|co- ren soud ick|_ _ haer _ ha-|||
 d4 A4 B4 A4 | d4 c4 d4 =e4 | f8 z4 f4- | f4 f4 d6 =e2 | f4 d6 c2 B2 A2 | G4 F4 D4 d4- | d4 c4 d8 | %51
w: len, goed co- ren|soud ick haer ha-|len, Wou|_ sij mijn _|mo- le- * na- *|rin- * * *|* * ne|
 B16 |] %52
w: sijn.|
V:3
 z16 | z16 | z16 | z16 | z8 A8 | B12 B4 | A8 G8 | c8 B4 G4- | G4 F4 =E8 | D16 | z16 | z4 A4 B4 A4 | %12
w: ||||Ick|weedt een|mo- le-|na- rin- *|* * ne-|ken||In al- le|
 B4 G4 F8 | D8 G8 | F8 D4 E4- | E4 C8 B,4- | B,2 C2 D2 E2 F8 | z16 | z16 | z8 z4 B4 | B6 c2 d4 e4 | %21
w: de- ze lan-||||* * * * den,|||En|mach _ _ gheen|
 d8 G6 A2 | B4 c4 B8 | z4 B4 A4 F4 | B8 A4 G4 | A8 G4 B4- | B2 A2 G8 ^F4 | G4 d4 e4 f2 e2 | %28
w: schoon- * *|* der zijn:|Rijk God mocht|zij _ mij|ma- * *||len, rijk God _ _|
 d2 c2 B6 AG A4 | B6 A2 G4 F4- | F2 G2 A2 B2 G8 | A8 z8 | z8 G8 | F4 F4 G4 A4- | A2 B2 c2 A2 B8 | %35
w: _ _ _ _ _ mocht|zij _ _ mij|_ _ _ _ ma-|len,|Goed|co- ren soud ick|_ _ haer _ ha-|
 A4 A6 G2 F2 =E2 | D4 A4 B8 | A4 G4 A8 | G6 F2 G2 A2 B4 | B2 A2 G8 ^F4 | G4 d4 e4 f2 e2 | %41
w: len, goed _ _ _|co- * *|ren _ soud|ick _ _ _ haer|ha- * * *|len, goed co- * *|
 d2 c2 B6 AG A4 | B6 A2 G4 F4- | F2 G2 A2 B2 G8 | A8 z8 | z8 G8 | F4 F4 G4 A4- | A2 B2 c2 A2 B8 | %48
w: * * * * * ren|soud _ ick haer|_ _ _ _ ha-|len,|goed|co- ren soud ick|_ _ haer _ ha-|
 A4 A4- A2 G2 F2 =E2 | D4 A4 B4 B4 | A4 G4 A8 | G16 |] %52
w: len, Wou _ _ _ _|sij mijn mo- le-|na- rin- ne|sijn.|
V:4
 z16 | z8 A,,8 | B,,12 B,,4 | A,,8 G,,6 A,,2 | B,,2 G,,2 G,8 F,4 | G,16 | z8 z4 G,4 | %7
w: |Ick|weedt een|mo- le- na-|rin- * * ne-|ken|Van|
 F,4 E,6 D,2 E,4 | C,4 D,4 A,,8 | A,6 G,2 F,2 =E,2 D,4 | z16 | z4 D,4 G,4 F,4 | G,4 E,4 D,6 C,2 | %13
w: her- * * ten|al- * so|fijn. _ _ _ _||In al- le|de- ze lan- *|
 B,,6 A,,2 G,,8 | z16 | z8 z4 G,,4- | G,,2 A,,2 B,,2 C,2 D,6 E,2 | F,4 G,6 A,2 B,2 C2 | %18
w: * * den,||En|_ _ _ _ mach _|_ gheen _ _ _|
 A,2 D4 C2 B,8 | A,4 A,4 B,6 A,2 | G,4 F,2 E,2 D,4 C,4 | B,,8 z8 | z16 | z8 z4 B,,4 | %24
w: _ schoon- der zijn,|_ En mach _|_ gheen _ schoon- der|zijn:||Rijk|
 B,,6 C,2 D,4 E,4 | D,8 G,,6 A,,2 | B,,4 C,4 A,,8 | G,,8 z8 | z8 C,8 | B,,4 B,,4 C,4 D,4- | %30
w: God _ _ _|mocht zij _|_ mij ma-|len,|Goed|co- ren soud ick|
 D,2 E,2 F,2 D,2 E,8 | D,8 z8 | z16 | z4 D,4 =E,4 F,4- | F,2 G,2 A,2 F,2 G,8 | D,8 D,6 C,2 | %36
w: _ _ haer _ ha-|len,||goed co- *|* * * * ren|soud ick _|
 B,,4 A,,4 G,,4 G,4 | F,4 =E,4 D,8 | z4 G,,4 G,,6 A,,2 | B,,4 C,4 A,,8 | G,,8 z8 | z8 C,8 | %42
w: _ haer ha- *|* * len,|soud ick _|_ haer ha-|len,|goed|
 B,,4 B,,4 C,4 D,4- | D,2 E,2 F,2 D,2 E,8 | D,8 z8 | z16 | z4 D,4 =E,4 F,4- | F,2 G,2 A,2 F,2 G,8 | %48
w: co- ren soud ick|_ _ haer _ ha-|len,||Wou sij mijn|_ _ _ _ mo-|
 D,8 D,6 C,2 | B,,4 A,,4 G,,4 G,4 | F,4 E,4 D,8 | G,,16 |] %52
w: le- na- *|rin- * * *|* * ne|sijn.|

